X: 27
T:Monferrina 2
M:6/8
L:1/8
R:Jig (Monferrina)
N:2nd tune of set with Monferrina 1
N:http://www.lesession.co.uk
Z:Steve Mansfield 1998-2001
K:G
d ded |: B2 B BcA | G3 G2 A | BAB c2 B | A3 c cdc | 
A2 A ABA | F3 d2 e | fed cBA |1 B2 G ded :|2 B2 G3 d |: 
GBG BGB | d2 B ded | fed cBA | B2 G d2 d | 
GBG BGB | d2 B ded | fed cBA |1 G3 G2 d :|2 G3 d2 B |: 
GBd c2 A | F3 f2 e | ded cBA | B2 G d2 B | 
GBd c2 A | F3 f2 e | ded cBA |1 B3 d2 B :|2 G2 ||
<end>
<start>
